X:1
T:Desire (그리움) 
T:Lee Byung-woo (이병우) 
T:from the OST of Painter of the Wind ( 바람의화원) 
T:Transcripción: Guillermo Segovia
T:Transcripción: Guillermo Segovia
T:Transcripción: Guillermo Segovia
C:
Z:Transcripción: Guillermo Segovia
%%score { ( 1 2 5 ) | ( 3 4 6 ) }
L:1/8
Q:1/4=72
M:4/4
K:C
V:1 treble-8 nm="Guitar" snm="Guit."
V:2 treble-8 
V:5 treble-8 
V:3 tab stafflines=6 strings=E2,A2,D3,G3,B3,E4 nostems 
V:4 tab stafflines=6 strings=E2,A2,D3,G3,B3,E4 nostems 
V:6 tab stafflines=6 strings=E2,A2,D3,G3,B3,E4 nostems 
V:1
 !0!e!3!g!3!g!0!e !4!a!3!g!0!e!3!g | x8 | !1!g!2!aa!1!g !4!d'!2!c'!1!b!2!c' | %3
 [ce]4 !3!e!4!f!1!g!0!e | !4!a4 !1!a!4!b!4!c'!1!a | !3!c'4 !1!c'!4!d'!4!e'!1!c' | %6
 !4!f'!4!e'!3!d'!2!c' !1!b3 !4!e' | !4!e'2 !4!d'!1!c' !4!e'2 !4!d'!1!c' | !4!b6 z2 |: %9
S x !1!eae !2!b!1!a !1!e2 | x !2!e!4!ae !4!b!1!a f2 | x !3!a!4!ba !4!e'!4!b !3!a2 | %12
 x !1!f!1!_b!1!a ^g4 | x eae !2!b!1!a!1!e!4!e' | z !3!a!1!c'!3!a !4!a'!1!f' !3!d'2 | %15
 x aba !4!e'!4!b a2 | x f_ba ^g4 | x !0!B!0!e!0!B !1!^f!0!e !0!B2 | %18
 x !3!e!4!b!3!e !4!e'!1!c' !3!a2 | x !3!e!4!^f!3!e !4!b!4!f !3!e2 | x !1!c!2!f!0!e ^d4 | %21
 x !0!B!0!e!0!B !1!^f!0!e!0!B!4!b- | bebe e'c' a2 | x !3!e!4!^f!3!e !4!b!4!f e2 | x cfe ^d4 | e8 | %26
 e8 | x8 | x8 |1 !3!e!1!gg!3!e !4!a!1!g!3!eg ||1 x8 ||1 %31
 !1!g!2!aa!-(!!1!g !-)!!4!d'!2!c'!1!b!2!c' ||1 [ce]4 !3!e!4!f!1!g!0!e ||1 %33
 !4!a4 !1!a!4!b!4!c'!1!a ||1 !3!c'4 !1!c'!4!d'!4!e'!1!c' ||1 !4!f'!4!e'!3!d'!2!c' !1!b3 !4!e' ||1 %36
 !4!e'2 !4!d'!1!c' !4!e'2 !4!d'!1!c' ||1 !4!b6 x2!D.C.! :|O !3!e!1!gg!3!e !4!a!1!g!3!eg | x8 | %40
 !1!g!2!aa!-(!!1!g !-)!!4!d'!2!c'!1!b!2!c' | [ce]4 !3!e!4!f!1!g!0!e | a4 !3!a!4!b!4!c'!3!b | %43
 !1!a!3!b!3!c'!4!d' !4!e'2 !4!d'!1!c' | !4!e'2 !4!d'!1!c' !1!a2 !4!g!2!f | %45
[Q:1/4=65] !4!a2 !4!g!1!f !0!e2 !4!d!1!c |[Q:1/4=55] !0!e2[Q:1/4=45] !4!d!fermata!!1!c A4 |] %47
V:2
 !2!!1![FA]8 | [FBd]8 | [E,GB]8 | A,4 B3 z | !1!!3![Fc]4 [ce]4 | !2!!1![df]4 !2!!3![ea]4 | %6
 !1!B,4x!3!^g x2 | x !2!!3![ea]3 x !3!a2 z | x !2!B!3!eb x !1!B!2!eB |: !0!A,2 !1!c2 !3!C2 c2 | %10
 !1!F2 c2 !1!D2 c2 | !1!C2 !2!e2 !1!F2 !2!e2 | x !2!d2 z x ^GBe | !0!A,2 c2 !3!C2 c2 | %14
 !1!F2 !2!e2 D2 !2!a2 | C2 e2 F2 e2 | x d2 z x ^GBe | E,2 !0!G2 !2!G,2 !0!G2 | %18
 !1!C2 !2!B2 !0!A,2 !2!e2 | !1!G,2 !2!B2 !1!C2 !2!B2 | x !3!A2 z B,^FB^d | E,2 !0!G2 !2!G,2 !0!G2 | %22
 C2 B2 A,2 e2 | !1!G,2 !2!B2 !1!C2 B2 | x A2 z B,^FB^d | F,F[Ac][Ac] FA c2 | G,EGB e4 | F,ABA e4 | %28
 G,EGB e4 |1 !1![CB]8 ||1 !1!!2![B,DGd]8 ||1 [E,GB]8 ||1 A,4 B3 z ||1 !1!!3![Fc]4 !3![Ece]4 ||1 %34
 !2!!1![df]4 !2!!3![ea]4 ||1 !1!B,4x!3!^g x2 ||1 x !2!!3![ea]3 x !3!a2 z ||1 %37
 x !2!B!3!eb x !1!B!2!eB :| !1![CB]8 | !1!!2![B,DGd]8 | [E,GB]8 | A,4 B3 z | %42
 [Fc]4 !1!!2![^Fc]2 z2 | [Gce]3 z x !3!a3 | x [ea]3 x [ce]3 | !0!D!1!!2![Ad] x2 A,!2!E x2 | %46
 D!2!A x2 !arpeggio![CE]4 |] %47
V:3
 !1!E !1!G !1!G !1!E !1!A !1!G !1!E !1!G | x8 |"Em" !1!G !1!A !1!A !1!G !1!d !1!c !1!B !1!c | %3
 [!3!C!2!E]4 !2!E !2!F !1!G !1!E | !1!A4 !1!A !1!B !1!c !1!A | !1!c4 !1!c !1!d !1!e !1!c | %6
 !1!f !1!e !1!d !1!c !1!B3 !1!e | !1!e2 !1!d !1!c !1!e2 !1!d !1!c | !1!B6 x2 |: %9
 x !2!E !1!A !2!E"Am/C" !1!B !1!A !2!E2 | x !3!E !2!A !3!E !2!B !2!A !3!F2 | %11
 x !2!A !2!B !2!A !1!e !2!B !2!A2 |"Dm" x !2!F !1!_B !1!=A !1!^G4 | %13
 x !2!E !1!A !2!E"Am/C" !1!B !1!A !2!E !1!e | x !2!A !1!c !2!A !1!a !1!f !2!d2 | %15
 x !2!A !2!B !2!A !1!e !2!B !2!A2 |"Dm" x !2!F !1!_B !1!A !1!^G4 | %17
 x !2!B, !1!E !2!B, !1!^F !1!E !2!B,2 | x !2!E !1!B !2!E !1!e !1!c !2!A2 | %19
 x !2!E !2!^F !2!E !1!B !2!F !2!E2 | x !3!C !2!F !1!E !2!^D4 | %21
 x !2!B, !1!E !2!B, !1!^F !1!E !2!B, !1!B- | !1!B !2!E !1!B !2!E !1!e !1!c !2!A2 | %23
 x !2!E !2!^F !2!E !1!B !2!F !2!E2 | x !3!C !2!F !1!E !2!^D4 | !1!E8 | !1!E8 | x8 | x8 |1 %29
 !2!E !1!G !1!G !2!E !1!A !1!G !2!E !1!G ||1 x8 ||1 %31
"Em" !1!G !1!A !1!A !-(!!1!G !-)!!1!d !1!c !1!B !1!c ||1 %32
"Am" [!3!C!2!E]4"Em/G" !2!E !2!F !1!G !1!E ||1"F" !1!A4"Am/E" !1!A !1!B !1!c !1!A ||1 %34
 !1!c4 !1!c !1!d !1!e !1!c ||1 !1!f !1!e !1!d !1!c !1!B3 !1!e ||1 %36
 !1!e2 !1!d !1!c !1!e2 !1!d !1!c ||1 !1!B6 x2 :| !2!E !1!G !1!G !2!E !1!A !1!G !2!E !1!G | x8 | %40
 !1!G !1!A !1!A !-(!!1!G !-)!!1!d !1!c !1!B !1!c | [!3!C!2!E]4 !2!E !2!F !1!G !1!E | %42
 !1!A4 !1!A !1!B !1!c !1!B | !1!A !1!B !1!c !1!d !1!e2 !1!d !1!c | %44
 !1!e2 !1!d !1!c !1!A2 !2!G !2!F | !1!A2 !1!G !1!F !1!E2 !2!D !2!C | %46
 !1!E2 !2!D !fermata!!2!C !3!A,4 |] %47
V:4
"Fmaj7" [!4!F,!3!A,]8 |"Bdim/F" [!4!F,!3!B,!2!D]8 | [!6!E,,!3!G,!2!B,]8 |"Am" !5!A,,4 !3!B,3 x | %4
"F" [!4!F,!3!C]4 [!3!C!2!E]4 | [!3!D!2!F]4 [!3!E!2!A]4 | !6!B,,4 !2!x !2!^G x2 | %7
 x [!3!E!2!A]3 x !2!A2 x | x !3!B, !2!E !1!B x !3!B, !2!E !3!B, |:"Am" !5!A,,2 !3!C2 !6!C,2 !3!C2 | %10
"Fmaj7" !5!F,2 !4!C2"Dm7" !6!D,2 !4!C2 |"A/C" !6!C,2 !3!E2"Fmaj7" !5!F,2 !3!E2 | %12
 x !3!D2 x x !4!^G, !3!B, !2!E |"Am" !5!A,,2 !3!C2 !6!C,2 !3!C2 | %14
"Fmaj7" !5!F,2 !3!E2"Dm7" !4!D,2 !3!A2 |"A/C" !6!C,2 !3!E2"Fmaj7" !5!F,2 !3!E2 | %16
 x !3!D2 x x !4!^G, !3!B, !2!E |"Em" !6!E,,2 !3!G,2"Em/G" !6!G,,2 !3!G,2 | %18
"Cmaj7" !5!C,2 !3!B,2"Am" !5!A,,2 !3!E2 |"Em/G" !6!G,,2 !3!B,2"Cmaj7" !5!C,2 !3!B,2 | %20
"Dm" x !4!A,2 x"B" !5!B,, !4!^F, !3!B, !2!^D | !6!E,,2 !3!G,2 !6!G,,2 !3!G,2 | %22
 !5!C,2 !3!B,2 !5!A,,2 !3!E2 | !6!G,,2 !3!B,2 !5!C,2 !3!B,2 | %24
 x !4!A,2 x !5!B,, !4!^F, !3!B, !2!^D | !6!F,, !4!F, [!3!A,!2!C] [!3!A,!2!C] !4!F, !3!A, !2!C2 | %26
 !6!G,, !4!E, !3!G, !2!B, !1!E4 | !6!F,, !3!A, !2!B, !3!A, !1!E4 | %28
 !6!G,, !4!E, !3!G, !2!B, !1!E4 |1"C" [!5!C,!3!B,]8 ||1"Bm" [!5!B,,!4!D,!3!G,!2!D]8 ||1 %31
 [!6!E,,!3!G,!2!B,]8 ||1 !5!A,,4 !3!B,3 x ||1 [!4!F,!3!C]4 [!5!E,!3!C!2!E]4 ||1 %34
 [!3!D!2!F]4 [!3!E!2!A]4 ||1 !6!B,,4 !2!x !2!^G x2 ||1 x [!3!E!2!A]3 x !2!A2 x ||1 %37
 x !3!B, !2!E !1!B x !3!B, !2!E !3!B, :| [!5!C,!3!B,]8 | [!5!B,,!4!D,!3!G,!2!D]8 | %40
 [!6!E,,!3!G,!2!B,]8 | !5!A,,4 !3!B,3 x | [!4!F,!3!C]4 [!4!^F,!3!C]2 x2 | %43
 [!4!G,!3!C!2!E]3 x x !2!A3 | x [!3!E!2!A]3 x [!3!C!2!E]3 | !4!D, [!3!A,!2!D] x2 !5!A,, !4!E, x2 | %46
 !4!D, !3!A, x2 !arpeggio![!5!C,!4!E,]4 |] %47
V:5
 x8 | x8 | x8 | x4 G,3 z | x4 !3!E4 | !0!D4 !1!C4 | x4 !1!E2 !0!D2 | !1!C4 !2!^F3 z | %8
 !1!G,4 !1!^G,4 |: x8 | x8 | x8 | !0!D4 E,4 | x8 | x8 | x8 | D4 E,4 | x8 | x8 | x8 | !0!A,4 x4 | %21
 x8 | x8 | x8 | A,4 x4 | x8 | x8 | x8 | x8 |1 x8 ||1 x8 ||1 x8 ||1 x4 G,3 z ||1 x8 ||1 %34
 !0!D4 !1!C4 ||1 x4 !1!E2 !0!D2 ||1 !1!C4 !2!^F3 z ||1 !1!G,4 !1!^G,4 :| x8 | x8 | x8 | x4 G,3 z | %42
 x8 | x4 !2!^F4 | !1!F4 !3!E4 | x8 | x8 |] %47
V:6
 x8 | x8 | x8 | x4"Em/G" !6!G,,3 x | x4"Am/E" !5!E,4 |"Dm7" !4!D,4"Am/C" !6!C,4 | %6
 x4 !5!E,2 !4!D,2 |"C" !6!C,4"F#m7" !5!^F,3 x |"Em/G" !6!G,,4"E/G#" !6!^G,,4 |: x8 | x8 | x8 | %12
 !4!D,4"E" !6!E,,4 | x8 | x8 | x8 | !4!D,4"E" !6!E,,4 | x8 | x8 | x8 | !5!A,,4 x4 | x8 | x8 | x8 | %24
 !5!A,,4 x4 | x8 | x8 | x8 | x8 |1 x8 ||1 x8 ||1 x8 ||1 x4 !6!G,,3 x ||1 x8 ||1 !4!D,4 !6!C,4 ||1 %35
 x4 !5!E,2 !4!D,2 ||1 !6!C,4 !5!^F,3 x ||1 !6!G,,4 !6!^G,,4 :| x8 | x8 | x8 | x4 !6!G,,3 x | x8 | %43
 x4 !5!^F,4 | !5!F,4 !5!E,4 | x8 | x8 |] %47

